X:1
T:Menuet
T:Menuet
T:Renaissance Suite #3
T:Jean Philippe Rameau (1683-1764) 
T:Freely arranged for piano by Leopold Godowsky 
T:2ème Menuet (No.11) from Nouvelles suites de pièces de clavecin
C:Jean Philippe Rameau (1683-1764)
Z:Freely arranged for piano by Leopold Godowsky
%%score { ( 1 3 5 ) | ( 2 4 6 ) }
L:1/8
Q:1/4=140
M:3/4
K:C
V:1 treble nm="Piano" snm="Pno."
V:3 treble 
V:5 treble 
V:2 treble 
V:4 treble 
V:6 treble 
V:1
"^Allegretto grazioso"!mp!!>(! E6- | E6!>)! | %2
!p! .[Ac]"_dolcissimo e sempre staccato".[Bd] .[ce]2 .[de]2 | (e2 .a2) .e2 | (e2 .c'2) .e2 | %5
{de} .d.^c !tenuto!d4 | .[^gb].[^fa].[eg].[df].[ce].[Bd] | .[Ac].[Bd] .[ce]2 .[ce]2 | %8
 !tenuto![ce]2 .[Bd].[Ac].[^GB].[^FA] |{^GA} G^F E4- | .[Ec].[Bd] .[ce]2 .[ce]2 | (e2 .a2) .e2 | %12
 (e2{/e} .c'2) .e2 |{de} .d.^c !tenuto!d4 |{^Gd} .[^gb]/ z/ .[^fa].[eg].[df].[ce].[Bd] | %15
 c[Bd] [ce]2 [ce]2 | [ce]2{[Bd]e} [Bd][Ac][^GB][^FA] |{^GA} G.^F !breath!!tenuto!E4 | %18
 .E.^F .[E^G]2 .[EG]2 | .[E^G].[^FA] .[^GB]2 .[AB]2 | .[^GB].[Ac] .[Bd]2 .[cd]2 | !tenuto![Bd]6 | %22
 .b.c' .d'2 .d'2 | .a.b .c'2 .c'2 | (b2 c'2"_rall." [^d^d']2 |!<(! [ec']4) e2!<)! | %26
!mf! .[cac']"_a tempo".[Bgb] !>!A4 | .[df].[ce] !>!d4 | .[GB].[FA] !>!G4 | z2 !>!c4 | %30
 (.^F.^G.A.B.c.A | .B.^G.A.^F.^G.E) | (eA) !tenuto!TB2[I:staff +1] ED |[I:staff -1] !breath!A6 || %34
!p!"^a tempo"!<(! .E.^D.=D.C.B,.C!<)! |!<(! .B,.C.B,.A,[I:staff +1].^G,[I:staff -1].A,!<)! | %36
 .B.c B2 A2 | !>!!tenuto![^Gd]6 |!p!!<(! .[df].[ce]!<)!.[Bd].[Ac].[^GB].[Bd] | %39
!<(! .[Ac].[^GB]!<)!.[^FA].[GB].[Ac].[Bd] |"_cresc." .[Ge].[A^f].[Bg].[Ge] [A^da]2 | %41
!<(! e4 ([Aea][Bb]!<)! |!f! c')d' !>!a4 | fe !>!d4 | ba !>!g4 | ed !>!c4 | ag !>!f4 | %47
!>(! dc !>!_B4!>)! |!p!!<(! ([^Gdf]2 [df=b]2)!<)!!>(! [df]2!>)! |!<(! ([^Gdf]2!<)! [dfb]2) .[df]2 | %50
!<(!"_cresc." (.[^Gdf]2!<)! .[dfb]2)!<(! (.[df_b]2 | .[fad']2)!<)! (.[df^g]2!>(! .[ege']2)!>)! | %52
!p! [^G,E]"_a tempo"[^DB] [=D_B] [Af] [^Ge] [^db] | %53
!>(! [=d_b] [af'] [^ge'] [^d'b'] [ege']!>)![I:staff +1]!>!!fermata!E | %54
!pp![I:staff -1] .[cac'].[dbd'] .[ec'e']2 .[ebc'e']2 | ([eac'e']2 .[ac'a']2) .[e^gc'e']2 | %56
 ([egc'e']2 .[c'e'c'']2) .[e^fc'e']2 |{[dbd'][c'e']} .[dbd'].[cac'] !tenuto![dbd']4 | %58
 .[b^g'b'].[a^f'a'].[^ge'g'].[^fd'f'].[ec'e'].[dbd'] | .[cac'].[dbd'] .[eac'e']2 .[e^gc'e']2 | %60
 !tenuto![e^fc'e']2 .[dbd'].[cac'].[B^gb].[Afa] |{^ga} .[^Geg].[^F^f] [Ee][Dd]{cd}cB | %62
 .[cac'].[dbd'] .[ec'e']2 .[ebc'e']2 | ([eac'e']2 .[ac'a']2) .[e^gc'e']2 | %64
 ([egc'e']2 !arpeggio!.[c'e'c'']2) .[e^fc'e']2 |{[dbd'][c'e']} .[dbd'].[cac'] !tenuto![dbd']4 | %66
 .[b^g'b'].[a^f'a'].[^ge'g'].[^fd'f'].[ec'e'].[dbd'] | %67
 [cac'][dbd'] [ec'e']2"_poco rall." [ec'e']2 | ^f2 !tenuto![B=fab]2 (T[^Gd^g]2({^fg} | %69
 !tenuto!a4)) z2 || %70
[K:A]"^Molto tranquillo e più sostenuto"!pp! [ac'a']"_sempre dolcissimo"[bd'b'] [c'e'c'']2 [bd'e'b']2- | %71
 [bd'e'b']2 [eabd'e']2 [ac'a']2- | [ac'a']2 [ge'g'][fd'f'] [ec'e'][dbd'] | %73
 [cac'][dbd']"_rall." (ag =g2) |"_a tempo" dc [dgd']2 [cac']2 | [f^bf']2 [ec'e']2 [ac'a']2 | %76
 !arpeggio![aa'][gg'][ff'][ec'e'][dbd'][cac'] |!<(! (d^de^e[Ff]!<)![Gg]) | %78
!p! ([Aca]"_espressivo"[Bdb] [cec']2 [Bdb]2- | [Bdb]2 [Gde]2 [Aea]2) | %80
 (!arpeggio![Afa]2{[eg]a} [eg][df] [ce][Bd] |"_rall." [Ac][Gd] !arpeggio![Fe]4) | %82
"_a tempo" ([DFA]2 [DGd]2!<(! [CAc]2 | [F^Bf]2 [Ee]2)!<)! ([Aa-]2 | [Aa][Gg][Af][Ge][F^d][Ec]) | %85
 (!trill(!TB4 B/4)c/4d/4^d/4e/4f/4g/4a/4 | bc' d'2 c'2- | c'2 b2 a2 |!<(! (AB!<)! =c4 | %89
!>(! B2 A2 G2)!>)! | (^defgad | efgabe | ^da!>(! gf ed!>)! |!<(! !>!e6)!<)! | %94
"_dolcissimo""^a tempo" ([Aca][Bdb] [cec']2 [Bdb]2- | [Bdb]2 [Gde]2 [Aca]2) | %96
 ([Ada]2{[eg]a} [eg][df] [ce][Bd] | [CAc][DBd] [Ece]4) |!<(! (3DG!<)!A!>(! (3dg!>)!a (3cc'a | %99
 f2 e2 a2 | (!arpeggio![af'a'][ge'g'] [fd'f'][ec'e'] [dfd'][cec']) | %101
 !arpeggio![c=a][Bg][Af][Ge]=dc | (bc' d'2 !arpeggio!e2- | c'2 b2 a2- |!<(! AB!<)! =c4 | %105
!>(! e6)!>)! | (!tenuto!^defgad | efgabe | ^da!>(!gf!>)!ed | !>!e6) | %110
 ([Aca][Bdb] [cec']2 [B-d=fb-]2 | [Bb]2 [Bce]2 [A^B^da]2) | (([A=B=da]2 [Gg][Ff][Ece][DBd] | %113
"_rall." [CAc][DGd] [E=Ge]4)) |"_più   rall." [A,DFA]2"^l.h." [F,B,DF]2 [CFAc]2 | %115
"^l.h." [A,DFA]2 [EAce]2"^l.h." [CFAc]2 | (c[Fd] B/c/B/c/ B2) | z6 || %118
[K:C]!pp! .[Ac]"_a tempo".[Bd] .e2 .e2 | .[ce]2 (!>!a2 .e2) | .[ce]2 (!>!c'2 .e2) | %121
{de} .d.[Ac] !tenuto!d4 | .[^gb].[^fa].[eg].[df].[ce].[Bd] | .[Ac].[Bd] .e2 .e2 | %124
 !tenuto![ce]2{[Bd]e} .[Bd].[Ac].[^GB].[^FA] |{^GA} .G.^F !tenuto!E4- | .c.[Bd] .e2 .[ce]2 | %127
 (e2 a2) e2 | (e2{/e} .c'2) .e2 |{[Bd]e} .[Bd].[Ac] !tenuto![Bd]4 | %130
 .[db].[ca].[B^g].[d^f].[ce].[Bd] | .[Ac].[Bd] !tenuto![ce]2 !tenuto!e2 | %132
 [Ae]A !tenuto!B2{/E} (T^G2{^FG} | A4) z2 |!p!"_a tempo" .E.[^D^F] .[B,=D^G] .[Ae] .[A,CG] .[^DF] | %135
"_cresc." .[E^G].[^FA] .[DGB] .[ce] .[C^DB] .[FA] | %136
 .[^GB].[Ac]!<(! .[Bd] .[cef] .[Bdf] .[Acf]!<)! | %137
"_rall." ([Ff]2 e2)!pp!"^glissando" (14:4:14F/G/A/B/c/d/e/f/g/a/b/c'/d'/e'/ !fermata!z2 | %138
!p! f'"_espr. e tranquilo"e' d' x x/ =c'3/2 | b_b a x x/ g3/2 | e'd' c' x x/ _b3/2 | %141
 a_a g x x/ f3/2 | d'c' _b x x/ ^g3/2 | f=e ^d x x/ =d3/2 |"_dim." dc _B x x/ ^G3/2 | %145
"_rall." F=E ^D x z/ (Ee/) |!pp!"_a tempo" .[Ac]"_dolcissimo".[Bd] .e.e .e.e | ee ae ee | %148
 ee c'e ee | x2 z .e.e'.e | .[db].[ca].[B^g].[d^f].[ce].[Bd] | .[Ac].[Bd].e.e.e.e | %152
 .e.e{[Bd]e}.[Bd].[Ac].[^GB].[^FA] |{^GA} .[EG].[D^F] !tenuto!E4 | .[Ac].[Bd] .e.e.e.e | eeaeee | %156
 eec'eee | x2 z .e.e'.e | .[db].[ca].[B^g].[d^f].[ce].[Bd] | .[Ac].[Bd]eeee | %160
 eA B2 (!trill(!T^G2{^FG} | A4) z2 ||!p!"^poco più rall." .c.[Bd] .[ce]2 .[ce]2 | %163
 [ce]2 [c^da]2 [Ace]2 | [c^fc']2 [efa]2 [^d=e^ge']2 | (.[ac'a']2[K:bass] .A,,2) z2 | !fermata!z6 |] %167
V:2
!ped! z6 | z6!ped-up! | .A,.E.c.E.B.E | .A,.E.A.E.^G.E | .A,.E.G.E.^F.E | .A,.E.=F.E!ped!.B,.E | %6
[K:bass] .A,,.E,!ped-up!.^F,.E,.^G,.E, | .A,,.E,.A,.E,!ped!.C.A,,!ped-up! | %8
!ped! .D,,.A,,.D,!ped-up!.^F,.C.E | .E,,.B,,.^G,[I:staff -1].D[I:staff +1]{CD}.C.B, | %10
[K:treble] .A,.E.c.E.B.E | .A.E.A,.E.^G.E | .=G.E.A,.E.^F.E | .=F.E.A,.E!ped!.B,.E, | %14
[K:bass] .A,,.E,!ped-up!.^F,.E,.^G,.E, | .A,,.E,.A,.E,!ped!.C.A,,!ped-up! | %16
!ped! .D,,.A,,.D,!ped-up!.^F,.C.E |!ped! .E,,.B,,!ped-up!.^G,.B,, !tenuto!E,,2 | %18
!ped! .E,.B,.E!ped-up!.B,!ped!.^D,.E,!ped-up! |!ped! .=D,.E,.E!ped-up!.E,!ped!.C,.E,!ped-up! | %20
!ped! .B,,.E,.E!ped-up!.E,!ped!.A,,.E,!ped-up! | %21
!ped! .^G,,.E,.B,!ped-up!.E,!ped! !tenuto!G,,2!ped-up! |[K:treble] .^G,.D.B.E.G,.F | %23
 .A,.E.A.E.^G,.E | =G,EB^A!ped! [B,^D=A]2!ped-up! |!ped! (^GA [GB]2)[K:bass] x2!ped-up! | %26
 .A,.B,.C.B,.C.^C | !>!D6 | !>!G,6 | %29
 !tenuto![C,C]!tenuto![B,,B,]!tenuto![A,,A,]!tenuto![G,,G,]!tenuto![^F,,^F,]!tenuto![E,,E,] | %30
!ped! [^D,,^D,]4 [D,^F,A,C]2!ped-up! | %31
!ped! [=D,,=D,]2!ped-up!!ped! [C,,C,]2!ped-up!!ped! [B,,,B,,]2!ped-up! | %32
!ped!!<(! !arpeggio![C,,C,A,]2!ped-up!!ped! !arpeggio![D,,D,A,]2!ped-up!!ped! !arpeggio![E,,E,B,]2!<)!!ped-up! | %33
!ped! .A,,.E,[I:staff -1].C!ped-up![I:staff +1].E, !tenuto!A,,2 || .E,.B,,.E,,.B,,.E,.^D, | %35
 .E,.^D,.=D,.C,.B,,.C, | .^G,.A,.=G,.F,.E,.F, | %37
!ped! (E,/!<(!B,,/E,,/B,,/ E,/^G,/B,/!<)!E/[I:staff -1] e2)!ped-up! | %38
[I:staff +1] .B,.C[I:staff -1] .D2 .D2 |[I:staff +1] .A,.B,[I:staff -1] .C2 .C2 | %40
[I:staff +1] (B,2!ped! E2 [B,^D]2!ped-up! | [B,E]4)!ped!!ped-up!!ped! E2!ped! | %42
[K:treble]!ped! [A,A] ([Ae]!ped-up!B[c^g] ^c) !>!D- |!ped![D,D] ([DA]!ped-up!E[F^c] ^F) !>!G- | %44
!ped![G,G] ([Gd]!ped-up!A[^A^f] B) !>!C- |!ped! [C,C] ([CG]!ped-up!D[^DB] E) !>!F- | %46
!ped![F,F] ([Fc]!ped-up!G[^Ge] A)[K:bass] !>!_B,- |!ped![_B,,B,] ([_B,F]!ped-up!C[^CA] D) (E, | %48
!ped!([E,,=B,,])E,[^G,D]!>!F-)!ped-up!!>(! [DF]2!>)! | %49
!ped! ([E,,B,,]E,[^G,D]!>!F-)!ped-up!!>(! [DF]2!>)! | %50
!ped! ([E,,=B,,]E, D !>!F2)!ped-up!!ped! !>!F-!ped-up! | %51
!ped! [A,D]2!ped-up!!ped! [_B,D]2!ped-up!"^rall."!ped! [=B,D]2!ped!!ped-up! | [E,,E,]2 z4 | %53
 z6!ped!!ped-up! | [CE]2 z2!ped! !tenuto![B,E]2!ped-up! | %55
!ped! !tenuto![A,E]2!ped-up! z2!ped! !tenuto![^G,E]2!ped-up! | %56
!ped! !tenuto![G,E]2!ped-up! z2!ped! !tenuto![^F,E]2!ped-up! | %57
!ped! !tenuto![=F,E]2!ped-up! z2 !tenuto![F,E]2 | %58
!ped! !tenuto![^F,E]2!ped-up! z2!ped! !tenuto![^G,E]2!ped-up! | %59
!ped! !tenuto![A,E]2!ped-up! z2!ped! !tenuto![B,E]2!ped-up! | %60
!ped! !tenuto![CE]2!ped-up! z2 !tenuto![CE]2 |!ped! !tenuto![B,E]2 z2!ped-up! !tenuto![CE]2 | %62
!ped! !tenuto![CE]2!ped-up! z2!ped! !tenuto![B,E]2!ped-up! | %63
!ped! !tenuto![A,E]2!ped-up! z2!ped! !tenuto![^G,E]2!ped-up! | %64
!ped! !tenuto![=G,E]2!ped-up! z2!ped! !tenuto![F,E]2!ped-up! | %65
!ped! !tenuto![=F,E]2!ped-up! z2 !tenuto![F,E]2 | %66
!ped! !tenuto![^F,E]2!ped-up! z2!ped! !tenuto![^G,E]2!ped-up! | %67
!ped! !tenuto![A,E]2!ped-up! z2!ped! !tenuto![B,E]2!ped-up! | %68
!ped! !tenuto![^F,CE]2!ped-up!!ped! !tenuto![D,A,=F]2!ped-up!!ped! !tenuto![E,B,E]2!ped-up! | %69
!ped! .A,,.E,.C.E,!ped-up!!ped! !tenuto!A,,2-!ped-up! || %70
[K:A]!ped! [A,,,A,,]2 [E,A,E]2[K:treble] !arpeggio![ABdef]2!ped-up! | %71
[K:bass] [A,,,A,,]2 [E,B,E]2[K:treble] !arpeggio![EFAce]2 | %72
[K:bass]!ped! [A,,,A,,]2!ped-up! [E,B,E]2[K:treble] (cB) | %73
[K:bass]!ped! A,,2!ped-up![K:treble] (A!ped-up!G!ped! =G2) | %74
[K:bass]!ped! F2!ped-up!!ped! =F2!ped!!ped-up!!ped! A2!ped-up! | %75
!ped! GE!ped! C2!ped-up! C2!ped-up! |!ped! ^E,F,G,!ped-up!A,!ped-up!!ped!B,C | %77
!ped! D^D E^E!ped-up!!ped! x2!ped!!ped-up! |!ped! !tenuto!A,E,!ped-up! A,,4!ped!!ped-up! | %79
!ped! A,E,A,,-E,-!ped-up!!ped! [A,,E,]2!ped-up! |!ped! DE,- [A,,E,]4 | A!ped-up!B!ped! c4!ped-up! | %82
!ped! A,,4!ped-up!!ped!!ped-up!!ped! A,,2!ped-up! | %83
!ped! D,^D,!ped-up!!ped!E,=D,!ped-up!!ped!C,=C,!ped-up! | %84
!ped! B,,!ped-up!!ped!B,!ped-up!!ped!^B,!ped-up!!ped!C!ped-up!!ped!A,!ped-up!!ped!^A,!ped-up! | %85
!ped! =B, ([C=A]!ped-up![=A,F][B,G]!ped! [G,E]2)!ped-up! |!ped! (GA B2!ped-up!!ped! A2)!ped-up! | %87
 E,E=DE!ped!CE,!ped-up! |!ped! =CE!ped-up!!ped!^DEA,E,!ped-up! | %89
!<(! (G,A,!ped! B,4)!<)!!ped-up!!ped!!ped-up! | %90
[K:treble]!ped!!<(! ([FA][GB]!ped-up!!ped!!>(! [Ac]2!<)!!ped-up!!ped! B2)!>)!!ped-up! | %91
!ped! z2!ped-up!!>(! ([B,A]2!ped! [EG]2)!>)!!ped-up! | %92
[K:bass]!ped!!<(! (A,B,!ped-up!!ped! =C4)!ped!!ped-up!!<)!!ped-up! | %93
!ped! (B,^C!ped-up!!ped! D4)!ped-up! |!ped! (3(A,,E,B, (3CEA!ped-up!!ped! (3B,EE,)!ped-up! | %95
 (3x x B, E,2!ped! A,2!ped-up! |!ped! (3(F,A,D (3:2:2G2 F (3:2:2E2 D)!ped-up! | %97
!ped! (3A,,E,B,!ped-up!!ped! (3CA,B, (3G,A,=G,!ped-up! | %98
!ped![I:staff -1] D[I:staff +1]C!ped-up!!ped! F,!ped-up!=F,!ped! ^D,!ped-up!E, | %99
!ped! (G,D)!ped-up!!ped! (A,,=G,CA)!ped-up! | %100
!ped! (3(D,,A,,^A,,!ped-up! (3B,,D,F,!ped! (3G,A,^A,)!ped-up! | %101
!ped! (3z (^A,B,!ped-up! (3C^DE!ped! (3FG=A)!ped-up! |!ped! (GA!ped-up! B2!ped! A2)!ped-up! | %103
 E,E=DE!ped!CE,!ped-up! |!ped! =CE!ped-up!!ped!^DEA,E, | %105
!<(! (G,!ped-up!A,!ped! B,4)!<)!!ped-up!!ped!!ped-up! | %106
[K:treble]!<(!!ped! E4!<)!!ped-up!!ped!!ped-up!!ped! [EF]2!ped-up! | %107
!ped! E,2!>(! ([B,A]2!ped-up!!ped! [EG]2)!>)!!ped-up! | %108
[K:bass]!<(!!ped! (A,B,!<)!!ped-up!!ped! =C4)!ped!!ped-up! | %109
!ped!!<(! (B,^C!ped-up!!ped! D4)!<)!!ped-up! | %110
!ped! [A,,,A,,]2 [E,A,E]2!ped-up!!ped! !arpeggio![G,D=F]2!ped-up! | %111
!ped! [A,,,A,,]2 [=G,CE]2!ped-up!!ped! [F,^B,^D]2!ped-up! | %112
!ped! [A,,,A,,](E,!ped-up!!ped!^E,F,!ped-up!!ped!^^F,G,!ped-up! | %113
!ped! A,B,!ped-up!!ped! C)[I:staff -1](.A[I:staff +1].A,.A,,)!ped-up! | %114
!ped! [D,,A,,F,]2!ped-up!!ped! !arpeggio![B,,,F,,D,]2!ped-up!!ped! [F,,C,A,]2!ped-up! | %115
!ped! !arpeggio![D,,A,,F,]2!ped-up!!ped! [A,,E,C]2!ped-up!!ped! !arpeggio![F,,C,A,]2!ped-up! | %116
 z2 D4 |!ped! E6 ||[K:C][K:treble] E!ped-up!.A,.c[I:staff -1].[ae'][I:staff +1].c.A, | %119
 E.A,.c[I:staff -1].[c'e'][I:staff +1].c.A, | E.A,.c[I:staff -1].[ae'][I:staff +1].c.A, | %121
 E.A,.B[I:staff -1].[be'][I:staff +1].B.A, | E.A,.B[I:staff -1].e'[I:staff +1].^G.A, | %123
 E.A,.c[I:staff -1].[ae'][I:staff +1].c.A, | E.D,.C.^F.C.D, |[K:bass] .E,,.B,,.^G,.D{CD}.C.B, | %126
!ped! .!tenuto!C2!ped-up! x2!ped! .!tenuto!B,2!ped-up! | %127
!ped! !tenuto!A,2!ped-up! x2!ped! !tenuto!^G,2!ped-up! | %128
!ped! !tenuto!=G,2!ped-up! x2!ped! .!tenuto!^F,2!ped-up! |!ped! .=F,.E,.A,,!ped-up!.^D,.E,.F, | %130
!ped! !tenuto!^F,2!ped-up! x2!ped! !tenuto!^G,2!ped-up! | %131
!ped! !tenuto!A,3!ped-up!!ped! A,!ped-up!!ped!B,!ped-up!!ped!C!ped-up! | %132
!ped! C2!ped-up!!ped! A,2!ped-up!!ped! ED!ped-up! | .A,,.E,[I:staff -1].C[I:staff +1].E, .A,,2 | %134
!ped! E,2!ped-up! x2 x2 |!ped! E,2!ped-up! z2 z2 |!ped! E,2!ped-up! z2!ped! z2!ped!!ped-up! | %137
!ped! (^G,,/E,/B,/D/)!ped-up!!ped! E2[K:treble] (5:4:5(^G/B/e/^g/b/ !>!!fermata!e'2)!ped-up! | %138
!ped! D/A/g/[I:staff -1]f/ d'/a'/[I:staff +1] ^c'/e/d/[I:staff -1] =c'/f/c/!ped-up! | %139
!ped![I:staff +1] A,/D/c/[I:staff -1]d/ a/f'/[I:staff +1] ^f/=A/G/[I:staff -1] g/=f/=B/!ped-up! | %140
!ped![I:staff +1] C/G/f/[I:staff -1]_e/ c'/g'/[I:staff +1] b/d/c/[I:staff -1] _b/e/G/!ped-up! | %141
!ped![I:staff +1] F,/C/_B/[I:staff -1]c/ g/c'/[I:staff +1] e/G/F/[I:staff -1] f/_e/=A/!ped-up! | %142
!ped![I:staff +1] _B,/F/_e/[I:staff -1]d/ _b/f'/[I:staff +1] a/c/_B/[I:staff -1] ^g/c/F/!ped-up! | %143
!ped![I:staff +1] _E,/D/G/[I:staff -1]^G/ ^d/=b/[I:staff +1] ^c/G/E/[I:staff -1] =d/G/F/!ped-up! | %144
[I:staff +1][K:bass]!ped! _B,,/F,/_E/[I:staff -1]D/ _B/f/[I:staff +1] A/C/_B,/[I:staff -1] ^G/D/F,/!ped-up! | %145
!ped![I:staff +1] =E,,/D,/G,/[I:staff -1]^G,/!ped-up! ^D/B/[I:staff +1] =D/^G,/!ped! E,2!ped!!ped-up! | %146
 .C.[B,D]!ped! x2 .[CE]2!ped-up! |!ped! .[CE]2!ped-up! x2!ped! .[^G,E]2!ped-up! | %148
!ped! .[CE]2!ped-up! x2!ped! .[CE]2!ped-up! |!ped! .[B,D]2 x2 .[B,D]2!ped-up! | %150
!ped! !tenuto![^F,E]2!ped-up! x2!ped! !tenuto![^G,E]2!ped-up! | %151
!ped! !tenuto![A,E]2!ped-up! x2!ped! !tenuto![B,E]2!ped-up! | %152
!ped! !tenuto![CE]2 ^F,2 !tenuto!C2!ped-up! | %153
!ped! !tenuto!B,.E,.E,,!ped-up!.[D,E,].[C,E,].[B,,E,] | .C.[B,D]!ped! x2 .[CE]2!ped-up! | %155
!ped! [CE]2!ped-up! x2!ped! [^G,E]2!ped-up! |!ped! [G,CE]2!ped-up! x2!ped! [^F,CE]2!ped-up! | %157
!ped! .[F,B,D]2 x2 .[F,B,D]2!ped-up! | %158
!ped! !tenuto![^F,E]2!ped-up! x2!ped! !tenuto![^G,E]2!ped-up! | %159
!ped! [A,E]2!ped-up! x2!ped! !tenuto![B,E]2!ped-up! | %160
!ped! [^F,CE]2!ped-up!!ped! A,2!ped! !trill(!TB,2{A,B,}!ped-up! | %161
!ped! .A,,,.A,,.E,.C A2-!ped-up! ||[K:treble]"_legato" A2 ^G2 =G2 | %163
!ped! ^F2!ped-up!!ped!!ped-up!!ped! =F2!ped-up!!ped!!ped-up!!ped! !>!E2-!ped-up! | %164
!ped! D2!ped-up!!ped!!ped-up!!ped! C2!ped-up!!ped!!ped-up!!ped! B,2!ped-up! | A,2 z2 z2 | %166
!ped! !fermata!E6!ped-up! |] %167
V:3
 x6 | x6 | x6 | c4 c2 | c4 c2 | (B2 A2 ^G2) | x6 | ((A4 G2) | ^F2) x4 |{E} E x5 | x6 | c4 c2 | %12
 c4 c2 |{c} c2 B2 A2 | x6 | A2 (A2 ^G=G | !arpeggio!^F2) x4 |{E} .E x5 | x6 | x6 | (=F6- | F2 E4) | %22
 .f.e.d.c[I:staff +1].B[I:staff -1].d | .c.B[I:staff +1].A[I:staff -1].B.c.d | %24
 .e.^f.=g.e Ta2{^ga} | (^ga b2) [Aa][Bb] | x2 .[fa]2 .[eg]2 | x2 .[Bd]2 .[Ac]2 | x2 .[EG]2 .[DF]2 | %29
 !>!C6 | (C4 ^F2 | [B,=F]2 [A,^D]2 [^G,=D]2) |{/E} E2 F2{/E} ^G2{^FG} | C6 || (!>!E6 | E6) | %36
 !>!E6- | E6 | x6 | x6 | x6 | ([^G^g][Aa] [Bb]2) x2 | c'b e'2 [=ge']2 | .f.g .a2 .[=ca]2 | %44
 .b.c' .d'2 .[=fd']2 | .e.f .g2 .[_Bg]2 | .a._b .c'2 .[_ec']2 | .d._e .f2 .[^Gf]2 | x4 _BA | %49
 x4 _BA | x6 | x6 | x6 | x5 !arpeggio![=d'b'e''] | x6 | x6 | x6 | x6 | x6 | x6 | x6 | %61
 x2 !tenuto!e4 | x6 | x6 | x6 | x6 | x6 | z z a2 ^g=g | .[ec'e'].[Aa] x4 | [Ac]4 x2 ||[K:A] x6 | %71
 x6 | x6 | x2 [ec'e']4 | [Afa]2[I:staff +1] B_B E^D | x6 |[I:staff -1] d'3 x3 | [Bgb]4 =e2 | x6 | %79
 x6 | x6 | x2 =GA[I:staff +1]A,A,,- | x6 | x2[I:staff -1] c=B e^d | e2 x4 | !trill)!^D4{/^A} B z | %86
 x4 !arpeggio!e2- | [Ge]4 [Ae]2 | ^d6 | e6 | x6 | x6 | z2 (G2 F2) | G"^rall."A!>(!cB{AB}AG!>)! | %94
 x6 | E2 x4 | x6 | x6 | x2 d2 c2 | (3f^bf' (3ebc' (3aa'e' | x6 | b6 | x4 c'2- | [Ge]4 [Ae]2 | %104
 a2 g2 f2 | B2 A2 G2 | x6 | x6 | z2 (G2 F2) | (G"^rall."Ac!>(!B{AB}AG)!>)! | x6 | x6 | %112
 x2 [Bd]2 x2 | x6 | x2 d2 x2 | f2 x2 a2 | A4 G2 | x6 ||[K:C] x6 | x6 | x6 |{B} B x5 | x6 | x6 | %124
 x6 |{!>!E} E6 | E2 !>!c2 B2 | [Ac]4 [^Gc]2 | [=Gc]4 [^Fc]2 | =F4 E2 | x6 | %131
 x2 z"_rall." (A[^GB][=G_B] | ^F2 =F2 x2 | C4) x2 | x6 | x6 | x6 | [Bd]4 x4 | x6 | x6 | x6 | x6 | %142
 x6 | x6 | x6 | x6 | x2 !>![Ec]2 [Bc]2 | [Ac]2 [Ac]2 [^Gc]2 | [Gc]2 [ce]2 [^Fc]2 | =F4 x2 | x6 | %151
 x2 [Ac]2 [^Gc]2 | [^Fc]2 x4 |{E}[I:staff +1] B,2[I:staff -1]{CD} .C.B,.C.D | x2 !>!.[Ec]2 [Bc]2 | %155
 [Ac]2 !>!.[Ac]2 [^Gc]2 | [=Gc]2 !>![ce]2 [^Fc]2 | =F4 x2 | x6 | x2 [Ac]2 [^Gc]2 | %160
 [^Fc]2 [A,=F]2{/E} !trill)!E2 | C4 x2 || x6 | x6 | x6 | x2[K:bass] x4 | x6 |] %167
V:4
 x6 | x6 | x6 | x6 | x6 | x6 |[K:bass] x6 | x6 | x6 | x6 |[K:treble] x6 | x6 | x6 | x6 | %14
[K:bass] x6 | x6 | x6 | x6 | x6 | x6 | x6 | x6 |[K:treble] ^G,2 x4 | x6 | x4 (^F,=F, | %25
 [E,B,]2) =DE,[K:bass][C,^F,][B,,^G,] |{/A,,} !>!A,6 | .D,.E,.F,!>(!.E,.F,.^F, | %28
 .G,!>)!.A,._B,.A,.B,.=B, | x6 | x6 | x6 | x6 | x6 || x6 | x2 E,,3 E, | .B,,.E,.B,,.E,,.B,,.E,, | %37
 E,2 x4 | .B,.E,.^G,,.E,.E,,.E, | .A,.E,.A,,.E,.E,,.E, | B,E,EB,,^F,=F, | (E,^F, ^G,) E, ^F^G | %42
[K:treble] x6 | x6 | x6 | x6 | x5[K:bass] x | x6 | x2 ^G,2 (_B,A,) | x2 ^G,2 (_B,A,) | %50
 x2 ^G,2 [A,D]2 | F !>!F2 !>!F2 !>!E- | E2 x4 | x6 | .C.E,.A,,.E,.B,.E, | .A,.E,.A,,.E,.^G,.E, | %56
 .G,.E,.A,,.E,.^F,.E, | F,.E,.A,,.E,F,.E, | .^F,.E,.A,,.E,.^G,.E, | .A,.E,.A,,.E,.B,.E, | %60
 .C.^F,.[D,,A,,].F,.C.F, | .B,.E,.E,,.E,.C.B, | C.E,.A,,.E,.B,.E, | .A,.E,.A,,.E,.^G,.E, | %64
 .G,.E,.A,,.E,.F,.E, | .F,.E,.A,,.E,.F,.E, | .^F,.E,.A,,.E,.^G,.E, | A,.E,.A,,.E,.B,.E, | %68
 ^F,D,, z2 E,E,, | x6 ||[K:A] x4[K:treble] x2 |[K:bass] x4[K:treble] x2 | %72
[K:bass] x4[K:treble] [DEG]2 |[K:bass] x2[K:treble] ([A,C][B,D] [CE]2) | %74
[K:bass]{/A,,} !arpeggio!A,6- | A,3 A,G,=G, | A,,4 A,,2 | [A,,E,]3 =D[C=E][B,D] | A,3 (E,F,G, | %79
 A,4) B,C | D3 EFG | x6 | A,G,F,=F,E,^D, | F,,2 A,,2 A,,2 | x6 | B,,2 z2 E,E,, | !>!E3 E ^DE | x6 | %88
 x6 | G,A,F,EE,E |[K:treble] E4 [EF]2 | E,2 x4 |[K:bass] E,6 | E,4 E,,2 | %94
 (3:2:2[A,,,A,,]2 B, C2 B,2 | (3(A,,E,B, (3E,EB, (3A,E,A,,-) | A,,2 (3GAF (3EFD | A,,2 x4 | %98
 [A,,F,]2 B,2 A,2 | !arpeggio!A,,2 A,,2 x2 | x6 | B,,2 x2 E,2 | !>!E3 (E^DE) | x6 | x6 | %105
 G,A,F,EE,E |[K:treble] ([FA][GB]!>(! [A=c]2 B2)!>)! | z2 x4 |[K:bass] E,6 | E,4 E,,2 | x6 | x6 | %112
 A,,2 A,,4 | x2 C2 x2 | x6 | x6 | [E,E]6 | x6 ||[K:C][K:treble] !>!E6 | !>!E6 | !>!E6 | !>!E6 | %122
 !>!E6 | !>!E6 | !>!E6 |[K:bass] x6 | .C.E,.A,,.E,.B,.E, | .A,.E,.A,,.E,.^G,.E, | %128
 .G,.E,.A,,.E,.^F,.E, | x6 | .^F,.E,.A,,.E,.^G,.E, | .A,.E,.A,,A,B,C | %132
 !arpeggio!D,4 !arpeggio!E,2 | x6 | x6 | x6 | x6 | ^G,,2 x2[K:treble] x4 | x6 | x6 | x6 | x6 | x6 | %143
 x6 |[K:bass] x3 A3/2 x/ x | x3 D[I:staff -1]C[I:staff +1][^G,B,] | A,E,A,,!tenuto!E,B,E, | %147
 .A,.E,.A,,.E,.C.E, | .=G,.E,.A,,.E,.^F,.E, | .=F,.E,.A,,.E,.F,.E, | .^F,.E,.A,,.E,.^G,.E, | %151
 .A,.E,.A,,.E,.B,.E, | .C.E,.^F,.D,,.C.D, | x6 | .A,.E,.A,,.E,.B,.E, | .A,.E,.A,,.E,.C.E, | %156
 .=G,.E,.A,,.E,.^F,.E, | .=F,.E,.A,,.E,.F,.E, | .^F,.E,.A,,.E,.^G,.E, | .A,.E,.A,,.E,.B,.E, | %160
 ^F,D,,- !arpeggio![D,,D,]2 !trill)!!arpeggio![E,,E,]2 | x6 ||[K:treble] A6 | A6 | E6- | E6- | %166
 x6 |] %167
V:5
 x6 | x6 | x6 | x6 | x6 | x6 | x6 | x6 | x6 | x6 | x6 | x6 | x6 | x6 | x6 | x6 | x6 | x6 | x6 | %19
 x6 | x6 | x6 | x6 | x6 | x6 | x6 | x6 | x6 | x6 | E4 (.^D.E) | x6 | x6 | x6 | x6 || %34
 .E.^F .^G2 .G2 | .^G.A .B2 .B2 | x2 .d2 .d2 | x6 | x6 | x6 | x6 | x6 | x6 | x6 | x6 | x6 | x6 | %47
 x6 | x6 | x6 | x6 | x6 | x6 | x6 | x6 | x6 | x6 | x6 | x6 | x6 | x6 | x6 | x6 | x6 | x6 | x6 | %66
 x6 | x6 | x6 | x6 ||[K:A] x6 | x6 | x6 | x6 | x6 | x6 | x6 | x6 | x6 | x6 | x6 | x6 | x6 | x6 | %84
 x6 | x6 | x6 | x6 | a2 g2 f2 | x6 | x6 | x6 | x6 | x6 | x6 | x6 | x6 | x6 | x6 | x6 | x6 | x6 | %102
 x6 | x6 | ^d6 | x6 | x6 | x6 | x6 | x6 | x6 | x6 | x6 | x6 | x6 | x6 | x6 | x6 ||[K:C] x6 | x6 | %120
 x6 | x6 | x6 | x6 | x6 | x6 | x6 | x6 | x6 | x6 | x6 | x6 | x6 | x6 | x6 | x6 | x6 | x8 | x6 | %139
 x6 | x6 | x6 | x6 | x6 | x6 | x6 | x6 | x6 | x6 |{[Bd]e} .[Bd].[Ac] !tenuto![Bd]4 | x6 | x6 | x6 | %153
 x6 | x6 | x6 | x6 |{[Bd]e} .[Bd].[Ac] !tenuto![Bd]4 | x6 | x6 | x6 | x6 || x6 | x6 | x6 | %165
 x2[K:bass] x4 | x6 |] %167
V:6
 x6 | x6 | x6 | x6 | x6 | x6 |[K:bass] x6 | x6 | x6 | x6 |[K:treble] x6 | x6 | x6 | x6 | %14
[K:bass] x6 | x6 | x6 | x6 | x6 | x6 | x6 | x6 |[K:treble] x6 | x6 | x6 | x4[K:bass] x2 | x6 | x6 | %28
 x6 | x6 | x6 | x6 | x6 | x6 || x6 | x6 | x6 | x6 | x6 | x6 | x6 | x6 |[K:treble] x6 | x6 | x6 | %45
 x6 | x5[K:bass] x | x6 | x6 | x6 | x6 | x6 | x6 | x6 | x6 | x6 | x6 | x6 | x6 | x6 | x6 | x6 | %62
 x6 | x6 | x6 | x6 | x6 | x6 | x6 | x6 ||[K:A] x4[K:treble] x2 |[K:bass] x4[K:treble] x2 | %72
[K:bass] x4[K:treble] x2 |[K:bass] x2[K:treble] x4 |[K:bass] x6 | =D2 A4 | x6 | x6 | x6 | x6 | x6 | %81
 x6 | x6 | x6 | x6 | x6 | x6 | x6 | x6 | x6 |[K:treble] x6 | x6 |[K:bass] x6 | x6 | x6 | x6 | x6 | %97
 x6 | x6 | x6 | x6 | x6 | x6 | x6 | x6 | x6 |[K:treble] x6 | x6 |[K:bass] x6 | x6 | x6 | x6 | x6 | %113
 x6 | x6 | x6 | x6 | x6 ||[K:C][K:treble] x6 | x6 | x6 | x6 | x6 | x6 | x6 |[K:bass] x6 | x6 | x6 | %128
 x6 | x6 | x6 | x6 | x6 | x6 | x6 | x6 | x6 | x4[K:treble] x4 | x6 | x6 | x6 | x6 | x6 | x6 | %144
[K:bass] x6 | x6 | x6 | x6 | x6 | x6 | x6 | x6 | x6 | x6 | x6 | x6 | x6 | x6 | x6 | x6 | x6 | x6 || %162
[K:treble] x6 | x6 | x6 | x6 | x6 |] %167

